packages/foundations/assets/icons/functional/images/layout/fullscreen_exit_32.svg

<svg width="32" height="32" viewBox="0 0 32 32" fill="none" xmlns="http://www.w3.org/2000/svg">
<g clip-path="url(#clip0_185_1332)">
<path fill-rule="evenodd" clip-rule="evenodd" d="M12 21V28C12 28.5946 11.5937 29 11 29C10.4062 29 10 28.5995 10 28V22H4C3.4375 22 3 21.5938 3 21C3 20.4375 3.375 20 4 20H11C11.5937 20 12 20.4046 12 21ZM20 21C20 20.4046 20.4062 20 21 20H28C28.625 20 29 20.4375 29 21C29 21.5938 28.5625 22 28 22H22V28C22 28.5995 21.5937 29 21 29C20.4062 29 20 28.5946 20 28V21ZM20 11V4C20 3.4054 20.4062 3 21 3C21.5937 3 22 3.4005 22 4V10H28C28.5625 10 29 10.4063 29 11C29 11.5625 28.625 12 28 12H21C20.4062 12 20 11.5954 20 11ZM12 11C12 11.5954 11.5937 12 11 12H4C3.375 12 3 11.5625 3 11C3 10.4063 3.4375 10 4 10H10V4C10 3.4005 10.4062 3 11 3C11.5937 3 12 3.4054 12 4V11Z" fill="#1A1C1F"/>
</g>
<defs>
<clipPath id="clip0_185_1332">
<rect width="32" height="32" fill="white"/>
</clipPath>
</defs>
</svg>

<svg xmlns="http://www.w3.org/2000/svg" width="32" height="32" fill="none"><g clip-path="url(#a)"><path fill="#1A1C1F" fill-rule="evenodd" d="M12 21v7c0 .595-.406 1-1 1s-1-.4-1-1v-6H4c-.562 0-1-.406-1-1 0-.562.375-1 1-1h7c.594 0 1 .405 1 1m8 0c0-.595.406-1 1-1h7c.625 0 1 .438 1 1 0 .594-.437 1-1 1h-6v6c0 .6-.406 1-1 1s-1-.405-1-1zm0-10V4c0-.595.406-1 1-1s1 .4 1 1v6h6c.563 0 1 .406 1 1 0 .563-.375 1-1 1h-7c-.594 0-1-.405-1-1m-8 0c0 .595-.406 1-1 1H4c-.625 0-1-.437-1-1 0-.594.438-1 1-1h6V4c0-.6.406-1 1-1s1 .405 1 1z" clip-rule="evenodd"/></g><defs><clipPath id="a"><path fill="#fff" d="M0 0h32v32H0z"/></clipPath></defs></svg>
